lib/logo_updates/nrk-logo-nrk-tegnspraak-symbol-with-bg.svg

<svg width="226" height="84" viewBox="0 0 226 84" fill="none" xmlns="http://www.w3.org/2000/svg">
<rect width="226" height="84" fill="#1767CE"/>
<path d="M20 63V21.0038H33.7802V63H20ZM52.5283 27.6877L60.4532 63H45.3721L35.9092 21.0038H44.3676C46.3072 20.9786 48.1892 21.6624 49.6607 22.9264C51.1347 24.1373 52.1473 25.8184 52.5283 27.6877ZM62.5233 63V21.0038H76.3035V63H62.5233ZM86.7116 36.9743C85.2267 36.9888 83.7656 36.6003 82.4839 35.8504C81.2193 35.1194 80.1688 34.0689 79.438 32.8041C78.6872 31.5222 78.2986 30.0607 78.3134 28.5751C78.2964 27.0986 78.6853 25.6458 79.438 24.3755C80.1766 23.1245 81.2259 22.0853 82.4839 21.3588C83.766 20.6098 85.2269 20.2213 86.7116 20.2348C88.1877 20.2189 89.6399 20.6078 90.9108 21.3588C92.1562 22.0917 93.1943 23.13 93.9271 24.3755C94.6789 25.6462 95.0677 27.0987 95.0517 28.5751C95.0655 30.0605 94.6769 31.5218 93.9271 32.8041C93.202 34.0633 92.1627 35.113 90.9108 35.8504C89.6398 36.6029 88.1866 36.9918 86.7097 36.9743H86.7116ZM97.1807 63V21.0038H110.962V63H97.1807ZM128.408 43.9538C128.447 43.9946 128.742 44.4776 129.295 45.403C129.848 46.3283 130.567 47.5114 131.454 48.952C132.341 50.392 133.277 51.9199 134.262 53.536C135.247 55.1521 136.174 56.6803 137.043 58.1202C137.908 59.5602 138.894 61.1867 140 63H124.859C123.912 61.4621 123.055 60.0721 122.286 58.83C121.517 57.5878 120.7 56.2471 119.833 54.8077C118.965 53.3698 118.107 51.9699 117.259 50.6081C116.41 49.2464 115.681 48.0536 115.071 47.0297C114.459 46.0051 114.035 45.3149 113.799 44.9594C113.214 44.0771 112.868 43.058 112.794 42.0019C112.853 40.9883 113.179 40.0084 113.74 39.1619C113.976 38.7676 114.41 38.0675 115.041 37.062C115.672 36.0564 116.411 34.8637 117.259 33.4835C118.106 32.1034 118.965 30.6936 119.833 29.2543C120.702 27.815 121.519 26.4643 122.286 25.2025C123.056 23.9419 123.914 22.5421 124.859 21.0029H140L128.289 40.1082C127.926 40.6755 127.722 41.3292 127.697 42.0019C127.736 42.7081 127.983 43.3871 128.406 43.9538H128.408Z" fill="white"/>
<path fill-rule="evenodd" clip-rule="evenodd" d="M200.627 64.6274C206.629 58.6262 210 50.4869 210 42C210 33.5131 206.629 25.3738 200.627 19.3726C194.626 13.3714 186.487 10 178 10C169.513 10 161.374 13.3714 155.373 19.3726C149.371 25.3738 146 33.5131 146 42C146 50.4869 149.371 58.6262 155.373 64.6274C161.374 70.6286 169.513 74 178 74C186.487 74 194.626 70.6286 200.627 64.6274ZM189.789 27.8823L179.53 33.4373L179.534 33.4303C179.39 33.5088 179.283 33.641 179.236 33.7982C179.189 33.9553 179.206 34.1246 179.283 34.2693L179.323 34.3423C179.401 34.4865 179.533 34.5938 179.691 34.6407C179.848 34.6876 180.017 34.6702 180.162 34.5923L187.456 30.6503C187.801 30.4517 188.211 30.3978 188.597 30.5003C188.982 30.6027 189.311 30.8533 189.512 31.1973C189.69 31.554 189.719 31.9666 189.594 32.3449C189.469 32.7233 189.199 33.0369 188.844 33.2173L181.626 37.1203C181.463 37.2014 181.339 37.3434 181.281 37.5156C181.222 37.6877 181.234 37.876 181.314 38.0393C181.407 38.1958 181.558 38.3091 181.734 38.3546C181.911 38.4001 182.098 38.3741 182.255 38.2823L184.232 37.2123L184.412 37.1123L187.666 35.3523C188.011 35.1536 188.422 35.0995 188.807 35.2017C189.192 35.304 189.521 35.5544 189.723 35.8983C189.901 36.2552 189.93 36.6678 189.805 37.0464C189.68 37.425 189.41 37.7387 189.055 37.9193L184.197 40.5463L183.416 40.9623C183.237 40.4769 182.892 40.0699 182.444 39.8123C181.995 39.5548 181.47 39.4631 180.96 39.5533L172.113 41.2413C171.855 41.3029 171.607 41.396 171.372 41.5183C170.716 40.9273 170.167 40.2274 169.75 39.4493C169.154 38.3487 168.833 37.1207 168.814 35.8694C168.795 34.6182 169.078 33.3807 169.639 32.2623C169.645 32.2523 169.645 32.2423 169.645 32.2323L173.353 23.9693C173.507 23.6016 173.8 23.3097 174.168 23.1574C174.537 23.0051 174.95 23.0047 175.319 23.1563C175.677 23.332 175.952 23.6422 176.083 24.0193C176.214 24.3965 176.191 24.8101 176.019 25.1703L174.819 27.8423L176.759 26.7933C176.773 26.7854 176.788 26.7805 176.802 26.7756C176.819 26.77 176.835 26.7644 176.852 26.7543C176.865 26.7461 176.878 26.737 176.89 26.7279C176.906 26.7159 176.923 26.704 176.941 26.6943L184.795 22.4463C185.14 22.2475 185.551 22.1934 185.936 22.2958C186.321 22.3983 186.65 22.6491 186.851 22.9933C187.029 23.35 187.058 23.7625 186.933 24.1409C186.808 24.5193 186.538 24.8329 186.183 25.0133L177.512 29.7023C177.368 29.781 177.26 29.9136 177.213 30.0712C177.167 30.2288 177.184 30.3986 177.262 30.5433L177.3 30.6153C177.379 30.7597 177.511 30.867 177.669 30.9139C177.826 30.9607 177.996 30.9433 178.141 30.8653L188.401 25.3163C188.746 25.1176 189.156 25.0635 189.541 25.1658C189.927 25.2681 190.256 25.5184 190.457 25.8623C190.635 26.219 190.664 26.6316 190.539 27.01C190.414 27.3884 190.144 27.7019 189.789 27.8823ZM178.019 48.6193L188.475 53.7553C188.837 53.9213 189.119 54.2236 189.258 54.5963C189.398 54.9689 189.384 55.3816 189.221 55.7443C189.033 56.0955 188.715 56.3582 188.334 56.4755C187.954 56.5928 187.543 56.5549 187.19 56.3703L176.738 51.2343C176.591 51.1623 176.421 51.1516 176.266 51.2044C176.111 51.2573 175.983 51.3694 175.91 51.5163L175.873 51.5903C175.801 51.7377 175.791 51.9075 175.844 52.0626C175.897 52.2177 176.009 52.3456 176.156 52.4183L183.593 56.0723C183.955 56.2385 184.236 56.541 184.375 56.9138C184.515 57.2866 184.502 57.6994 184.338 58.0623C184.15 58.4132 183.832 58.6758 183.452 58.7929C183.071 58.9099 182.66 58.872 182.308 58.6873L174.952 55.0743C174.792 54.9886 174.604 54.9697 174.43 55.0218C174.256 55.0739 174.11 55.1927 174.023 55.3523C173.95 55.5187 173.945 55.7073 174.01 55.877C174.076 56.0467 174.205 56.1837 174.371 56.2583L179.884 58.9673C180.245 59.1335 180.526 59.4359 180.666 59.8084C180.806 60.181 180.792 60.5935 180.629 60.9563C180.442 61.3074 180.123 61.5702 179.743 61.6874C179.363 61.8047 178.951 61.7669 178.599 61.5823L173.65 59.1503C173.65 59.1503 169.162 56.9073 169.05 56.8073C167.413 55.7851 166.213 54.1917 165.684 52.3358C165.154 50.48 165.332 48.4936 166.183 46.7613C166.734 45.6398 167.547 44.6677 168.554 43.9278C169.561 43.1879 170.731 42.702 171.966 42.5113C171.971 42.5104 171.975 42.5078 171.979 42.5053C171.984 42.5023 171.989 42.4993 171.995 42.4993L180.864 40.7343C181.056 40.6899 181.255 40.6839 181.45 40.7167C181.645 40.7494 181.831 40.8203 181.998 40.9252C182.166 41.0301 182.31 41.1669 182.425 41.3279C182.539 41.4889 182.62 41.6708 182.664 41.8633C182.728 42.2565 182.635 42.6592 182.404 42.9838C182.173 43.3084 181.823 43.5285 181.43 43.5963L178.562 44.1673L180.539 45.1383C180.552 45.145 180.564 45.1534 180.575 45.162C180.59 45.1727 180.605 45.1835 180.624 45.1913C180.638 45.1971 180.652 45.2019 180.666 45.2066C180.685 45.2133 180.705 45.2199 180.724 45.2293L188.724 49.1613C189.085 49.3276 189.366 49.6299 189.506 50.0024C189.646 50.375 189.632 50.7875 189.469 51.1503C189.281 51.5013 188.962 51.7639 188.582 51.8809C188.202 51.998 187.79 51.96 187.438 51.7753L178.602 47.4343C178.454 47.3623 178.284 47.3517 178.129 47.4048C177.974 47.4578 177.846 47.5702 177.773 47.7173L177.737 47.7913C177.665 47.9386 177.655 48.1083 177.707 48.2634C177.76 48.4185 177.872 48.5464 178.019 48.6193Z" fill="#D4EEFC"/>
</svg>

<svg xmlns="http://www.w3.org/2000/svg" viewBox="0 0 226 84"><path fill="#1767CE" d="M0 0h226v84H0z"/><path fill="#fff" d="M20 63V21.004h13.78V63H20Zm32.528-35.312L60.453 63h-15.08l-9.464-41.996h8.459a7.965 7.965 0 0 1 5.293 1.922 8.31 8.31 0 0 1 2.867 4.762ZM62.523 63V21.004h13.78V63h-13.78Zm24.189-26.026a8.213 8.213 0 0 1-4.228-1.124 8.336 8.336 0 0 1-3.046-3.046 8.206 8.206 0 0 1-1.125-4.229 8.056 8.056 0 0 1 1.125-4.2 8.437 8.437 0 0 1 3.046-3.016 8.233 8.233 0 0 1 4.228-1.124 8.083 8.083 0 0 1 4.199 1.124 8.504 8.504 0 0 1 3.016 3.016 8.075 8.075 0 0 1 1.125 4.2 8.226 8.226 0 0 1-1.125 4.23 8.4 8.4 0 0 1-3.016 3.045 8.059 8.059 0 0 1-4.201 1.124h.002ZM97.18 63V21.004h13.781V63H97.181Zm31.227-19.046c.039.04.334.524.887 1.449.553.925 1.272 2.108 2.159 3.549a1143.28 1143.28 0 0 1 5.589 9.168A854.89 854.89 0 0 0 140 63h-15.141c-.947-1.538-1.804-2.928-2.573-4.17a388.795 388.795 0 0 1-2.453-4.022 355.984 355.984 0 0 0-2.574-4.2 210.645 210.645 0 0 1-2.188-3.578 62.13 62.13 0 0 0-1.272-2.07 6.127 6.127 0 0 1-1.005-2.958 5.745 5.745 0 0 1 .946-2.84c.236-.394.67-1.094 1.301-2.1.631-1.006 1.37-2.198 2.218-3.578.847-1.38 1.706-2.79 2.574-4.23.869-1.439 1.686-2.79 2.453-4.052.77-1.26 1.628-2.66 2.573-4.2H140l-11.711 19.106a3.773 3.773 0 0 0-.592 1.894c.039.706.286 1.385.709 1.952h.002Z"/><path fill="#D4EEFC" fill-rule="evenodd" d="M200.627 64.627a31.997 31.997 0 0 0 0-45.254A31.998 31.998 0 0 0 146 42a31.997 31.997 0 0 0 32 32 31.998 31.998 0 0 0 22.627-9.373Zm-10.838-36.745-10.259 5.555.004-.007a.622.622 0 0 0-.251.84l.04.072a.618.618 0 0 0 .839.25l7.294-3.942a1.51 1.51 0 0 1 2.056.547 1.51 1.51 0 0 1-.668 2.02l-7.218 3.903a.686.686 0 0 0-.312.92.69.69 0 0 0 .941.242l1.977-1.07.18-.1 3.254-1.76a1.511 1.511 0 0 1 2.057.546 1.51 1.51 0 0 1-.668 2.021l-4.858 2.627-.781.416a2.21 2.21 0 0 0-2.456-1.409l-8.847 1.688a3.226 3.226 0 0 0-.741.277 7.647 7.647 0 0 1-1.622-2.069 7.765 7.765 0 0 1-.111-7.187c.006-.01.006-.02.006-.03l3.708-8.263a1.51 1.51 0 0 1 1.966-.813 1.516 1.516 0 0 1 .7 2.014l-1.2 2.672 1.94-1.049c.014-.008.029-.012.043-.017a.238.238 0 0 0 .088-.048.412.412 0 0 1 .051-.034l7.854-4.248a1.51 1.51 0 0 1 2.056.547 1.51 1.51 0 0 1-.668 2.02l-8.671 4.69a.625.625 0 0 0-.25.84l.038.072a.622.622 0 0 0 .841.25l10.26-5.549a1.508 1.508 0 0 1 2.056.546 1.51 1.51 0 0 1-.668 2.02Zm-11.77 20.737 10.456 5.136a1.504 1.504 0 0 1 .746 1.99 1.51 1.51 0 0 1-2.031.625l-10.452-5.136a.62.62 0 0 0-.828.282l-.037.074a.62.62 0 0 0 .283.828l7.437 3.654c.362.166.643.469.782.842.14.373.127.785-.037 1.148a1.51 1.51 0 0 1-2.03.625l-7.356-3.613a.688.688 0 0 0-.929.278.691.691 0 0 0 .348.906l5.513 2.71a1.51 1.51 0 0 1 .745 1.988 1.507 1.507 0 0 1-2.03.626l-4.949-2.432s-4.488-2.243-4.6-2.343a7.79 7.79 0 0 1-.496-12.88 7.762 7.762 0 0 1 3.412-1.416c.005 0 .009-.003.013-.006.005-.003.01-.006.016-.006l8.869-1.765a1.497 1.497 0 0 1 1.8 1.13 1.513 1.513 0 0 1-1.234 1.732l-2.868.571 1.977.971a.231.231 0 0 1 .036.024c.015.01.03.022.049.03l.042.015c.019.006.039.013.058.022l8 3.932a1.511 1.511 0 0 1 .745 1.99 1.511 1.511 0 0 1-2.031.624l-8.836-4.34a.621.621 0 0 0-.829.282l-.036.074a.624.624 0 0 0 .282.828Z" clip-rule="evenodd"/></svg>
